X:86
T:La Belle Catherine. WM.085
M:2/4
L:1/8
Q:1/4=90
S:Wm.Mittell’s MS, New Romney,Kent,1799
R:.Country Dance
O:England
A:Kent
N:Nice version.
Z:vmp.Chris Partington
W:Change sides,back again,lead down the middle,up again,cast off Allemand
K:D
A|d2f/e/d/e/|fddc|B2e/f/e/d/|cAAA|!
d2f/e/d/e/|fddc|Be d/c/B/c/|d2” cr”D:|!
|:A/G/|FAAG|FAAG|FA d/e/f/d/|cAAA|!
FAAc|df/d/ ce/c/|df/e/ fe/d/|a3:|

